X:1
T:Le coucou
T:Le coucou
T:Transcribed by Daniel Antat
T:L-C.Daquin
C:L-C.Daquin
%%score { 1 | 2 }
L:1/8
M:2/4
K:G
V:1 treble nm="Piano" snm="Pno."
V:2 bass 
V:1
 z/ B/c/B/ e/B/c/B/ | g/B/c/B/ e/B/c/B/ | g/B/c/B/ e/B/c/B/ | gf{ef} e^d | e/B/c/B/ g/B/c/B/ | %5
 A/A/B/A/ f/A/B/A/ | G/G/A/G/ e/G/A/G/ | F/F/G/F/ d/F/G/F/ | E/E/F/E/ c/E/F/E/ | ^DE{FE} FG | %10
{GFG} F4 | z/ B/c/B/ e/B/c/B/ | g/B/c/B/ e/B/c/B/ | g/B/c/B/ e/B/c/B/ | gf{ef} e^d | %15
 e/B/c/B/ g/B/c/B/ | A/A/B/A/ f/A/B/A/ | G/G/A/G/ e/G/A/G/ | F/F/G/F/ d/F/G/F/ | %19
 E/E/F/E/ c/E/F/E/ | ^D/E/D/E/ F/G/A/F/ | BA/G/{G} TF>E | [G,B,E]4 | z/ d/e/d/ g/d/e/d/ | %24
 b/d/e/d/ g/d/e/d/ | b/d/e/d/ g/d/e/d/ | ba{ga} gf | g/d/e/d/ b/d/e/d/ | c/c/d/c/ a/c/d/c/ | %29
 B/d/c/B/ g/d/c/B/ | ed{cd} cB |{BAB} A2 z .A | !>!f2 z .a | !>!f2 z .a | !>!f2 z .a | !>!d2 z .d | %36
 !>!B2 z .d | !>!B2 z .d | !>!B2 z .d | G/F/G/A/ B/A/B/c/ | de{B} TA>G | [B,DG]4 | %42
 z/ B/c/B/ e/B/c/B/ | g/B/c/B/ e/B/c/B/ | g/B/c/B/ e/B/c/B/ | gf{ef} e^d | e/B/c/B/ g/B/c/B/ | %47
 A/A/B/A/ f/A/B/A/ | G/G/A/G/ e/G/A/G/ | F/F/G/F/ d/F/G/F/ | E/E/F/E/ c/E/F/E/ | ^DE{FE} FG | %52
{GFG} F4 | z/ B/c/B/ e/B/c/B/ | g/B/c/B/ e/B/c/B/ | g/B/c/B/ e/B/c/B/ | gf{ef} e^d | %57
 e/B/c/B/ g/B/c/B/ | A/A/B/A/ f/A/B/A/ | G/G/A/G/ e/G/A/G/ | F/F/G/F/ d/F/G/F/ | %61
 E/E/F/E/ c/E/F/E/ | ^D/E/D/E/ F/G/A/F/ | BA/G/{G} TF>E | [G,B,E]4 | z/ B/A/B/ ^G/B/A/B/ | %66
 e/B/A/B/ ^G/B/A/B/ | d/B/A/B/ ^G/B/A/B/ | e/B/^c/d/ e/d/c/B/ | ^c/c/B/c/ ^A/c/B/c/ | %70
 f/^c/B/c/ ^A/c/B/c/ | e/^c/B/c/ ^A/c/B/c/ | e/^c/d/e/ f/e/d/c/ | d/d/^c/d/ B/d/c/d/ | %74
 f/d/^c/d/ B/d/c/d/ | g/d/^c/d/ B/d/c/d/ | ^g/d/^c/d/ B/d/c/d/ | ^a/f/e/f/ ^c/f/e/f/ | %78
 b/f/e/f/ d/f/e/f/ | g/a/f/g/ e/f/d/e/ | ^c/d/c/d/ e/d/c/B/ |{^AB} A>B{^c} B3/2A/4B/4 | [F^A^c]4 | %83
 z/ F/G/F/ B/F/G/F/ | d/F/G/F/ B/F/G/F/ | d/F/G/F/ B/F/G/F/ | d^c{Bc} B_B | B/F/G/F/ d/F/G/F/ | %88
 E/E/F/E/ ^c/E/F/E/ | D/D/E/D/ B/D/E/D/ | ^CB CB/4^A/4^G/4B/4- | [^DFB]4 | z/ B/c/B/ e/B/c/B/ | %93
 g/B/c/B/ e/B/c/B/ | g/B/c/B/ e/B/c/B/ | gf{ef} e^d | e/B/c/B/ g/B/c/B/ | A/A/B/A/ f/A/B/A/ | %98
 G/G/A/G/ e/G/A/G/ | F/F/G/F/ d/F/G/F/ | E/E/F/E/ c/E/F/E/ | ^DE{FE} FG |{GFG} F4 | %103
 z/ B/c/B/ e/B/c/B/ | g/B/c/B/ e/B/c/B/ | g/B/c/B/ e/B/c/B/ | gf{ef} e^d | e/B/c/B/ g/B/c/B/ | %108
 A/A/B/A/ f/A/B/A/ | G/G/A/G/ e/G/A/G/ | F/F/G/F/ d/F/G/F/ | E/E/F/E/ c/E/F/E/ | %112
 ^D/E/D/E/ F/G/A/F/ | BA/G/{G} TF>E | [G,B,E]4 |] %115
V:2
 E,2 z[K:treble] .G | !>!E2 z .G | !>!E2 z .G | EF GA | G2 z E | F2 z ^D | E2 z[K:bass] C | %7
 D2 z B, | C2 z A, | B,A, G,F, | B,/F,/G,/A,/ B,/A,/G,/F,/ | E,2 z[K:treble] .G | !>!E2 z .G | %13
 !>!E2 z .G | EF GA | G2 z E | F2 z ^D | E2 z[K:bass] C | D2 z B, | C2 z A, | B,.B,, B,A, | %21
 G,A, B,B,, | E,/B,,/A,,/B,,/ G,,/B,,/A,,/B,,/ | .E,, z z[K:treble] .B | !>!G2 z .B | !>!G2 z .B | %26
 GA Bc | B2 z G | A2 z F | G2 z[K:bass] G, | CB, A,G, | D,/D/C/D/ A,/D/C/D/ | D,/D/C/D/ A,/D/C/D/ | %33
 D,/D/C/D/ A,/D/C/D/ | C,/A,/G,/A,/ F,/A,/G,/A,/ | B,,/G,/F,/G,/ D,/G,/F,/G,/ | %36
 B,,/G,/F,/G,/ D,/G,/F,/G,/ | B,,/G,/F,/G,/ D,/G,/F,/G,/ | B,,/G,/F,/G,/ D,/G,/F,/G,/ | E,G, D,C, | %40
 B,,C, D,D,, | G,,G,/A,/ B,/A,/G,/F,/ | E,2 z[K:treble] .G | !>!E2 z .G | !>!E2 z .G | EF GA | %46
 G2 z E | F2 z ^D | E2 z[K:bass] C | D2 z B, | C2 z A, | B,A, G,F, | B,/F,/G,/A,/ B,/A,/G,/F,/ | %53
 E,2 z[K:treble] .G | !>!E2 z .G | !>!E2 z .G | EF GA | G2 z E | F2 z ^D | E2 z[K:bass] C | %60
 D2 z B, | C2 z A, | B,.B,, B,A, | G,A, B,B,, | E,/B,,/A,,/B,,/ G,,/B,,/A,,/B,,/ | .E,, z z E | %66
 ^G,2 z E | B,2 z E | ^G,2 z E, | A,,2 z F | ^A,2 z F | ^C2 z F | ^A,2 z F, | B,,2 z B, | %74
 D,2 z B, | E,2 z B, | ^E,2 z B, | F,2 z =E, | D,2 z B, | E,F, G,F, | E,2 z G, | F,2 B,,2 | %82
 .F,,F,/E,/ F,/G,/F,/E,/ | D,2 z .D | !>!B,2 z .D | !>!B,2 z .D | B,^C DE | D2 z B, | ^C2 z _B, | %89
 B,2 z B,, | E,G, F,F,, | .B,,B,/C/ B,/A,/G,/F,/ | E,2 z[K:treble] .G | !>!E2 z .G | !>!E2 z .G | %95
 EF GA | G2 z E | F2 z ^D | E2 z[K:bass] C | D2 z B, | C2 z A, | B,A, G,F, | %102
 B,/F,/G,/A,/ B,/A,/G,/F,/ | E,2 z[K:treble] .G | !>!E2 z .G | !>!E2 z .G | EF GA | G2 z E | %108
 F2 z ^D | E2 z[K:bass] C | D2 z B, | C2 z A, | B,.B,, B,A, | G,A, B,B,, | E,4 |] %115

